build/img/icon-dislike.svg

<svg width="16" height="14" viewBox="0 0 16 14" fill="none" xmlns="http://www.w3.org/2000/svg">
<path d="M8.67963 13.6795L4.71221 9.67821C4.44723 9.41097 4.29684 9.04262 4.29684 8.65983V1.44451C4.29684 0.650028 4.94137 0 5.72913 0H12.1744C12.7473 0 13.2629 0.346682 13.4921 0.873927L15.8267 6.37028C16.4283 7.80035 15.3899 9.3893 13.8502 9.3893H9.80397L10.4843 12.6972C10.5559 13.0584 10.4485 13.4267 10.1907 13.6867C9.76816 14.1056 9.09499 14.1056 8.67963 13.6795ZM1.43228 0C2.22004 0 2.86456 0.650028 2.86456 1.44451V7.22254C2.86456 8.01702 2.22004 8.66705 1.43228 8.66705C0.644527 8.66705 0 8.01702 0 7.22254V1.44451C0 0.650028 0.644527 0 1.43228 0Z" fill="#151515" fill-opacity="0.1"/>
</svg>

<svg width="16" height="14" fill="none" xmlns="http://www.w3.org/2000/svg"><path d="M8.68 13.68L4.712 9.678a1.45 1.45 0 01-.415-1.018V1.445C4.297.65 4.94 0 5.729 0h6.445c.573 0 1.089.347 1.318.874l2.335 5.496c.601 1.43-.437 3.02-1.977 3.02H9.804l.68 3.307c.072.361-.036.73-.293.99a1.06 1.06 0 01-1.511-.007zM1.432 0c.788 0 1.433.65 1.433 1.445v5.778c0 .794-.645 1.444-1.433 1.444C.645 8.667 0 8.017 0 7.223V1.445C0 .65.645 0 1.432 0z" fill="#151515" fill-opacity=".1"/></svg>
